;FLAVOR:Marlin
;TIME:12077
;Filament used: 10.0973m
;Layer height: 0.16
;MINX:29
;MINY:49
;MINZ:0.2
;MAXX:191
;MAXY:171
;MAXZ:29.84
;Generated with Cura_SteamEngine 4.12.1
M140 S60
M105
M190 S60
M104 S200
M105
M109 S200
M82 ;absolute extrusion mode
; Ender 3 Custom Start G-code
G92 E0 ; Reset Extruder
G28 ; Home all axes
G29 ; Auto bwed level BL touch
G1 Z2.0 F3000 ; Move Z Axis up little to prevent scratching of Heat Bed
G1 X0.1 Y20 Z0.3 F5000.0 ; Move to start position
G1 X0.1 Y200.0 Z0.3 F1500.0 E15 ; Draw the first line
G1 X0.4 Y200.0 Z0.3 F5000.0 ; Move to side a little
G1 X0.4 Y20 Z0.3 F1500.0 E30 ; Draw the second line
G92 E0 ; Reset Extruder
G1 Z2.0 F3000 ; Move Z Axis up little to prevent scratching of Heat Bed
G1 X5 Y20 Z0.3 F5000.0 ; Move over to prevent blob squish
G92 E0
G92 E0
G1 F1500 E-6.5
;LAYER_COUNT:154
;LAYER:0
M107
G0 F6000 X35.442 Y51.692 Z0.2
;TYPE:SKIRT
G1 F1500 E0
G1 F1200 X35.617 Y51.572 E0.00706
G1 X36.199 Y51.199 E0.03005
G1 X36.405 Y51.076 E0.03803
G1 X37.363 Y50.567 E0.07411
G1 X37.867 Y50.33 E0.09263
G1 X38.97 Y49.882 E0.13223
G1 X39.313 Y49.764 E0.1443
G1 X40.13 Y49.518 E0.17267
G1 X40.319 Y49.469 E0.17917
G1 X40.811 Y49.353 E0.19598
G1 X41.034 Y49.306 E0.20356
G1 X41.866 Y49.164 E0.23163
G1 X42.215 Y49.118 E0.24334
G1 X43.019 Y49.042 E0.2702
G1 X43.262 Y49.028 E0.2783
G1 X43.754 Y49.011 E0.29467
G1 X44.676 Y49 E0.32534
G1 X52.293 Y49 E0.57868
G1 X53.504 Y49.016 E0.61896
G1 X55.698 Y49.076 E0.69196
G1 X58.251 Y49.076 E0.77688
G1 X59.564 Y49.047 E0.82056
G1 X60.991 Y49.005 E0.86804
G1 X61.312 Y49 E0.87872
G1 X173.542 Y49.001 E4.6115
G1 X174.166 Y49.008 E4.63226
G1 X174.472 Y49.015 E4.64244
G1 X174.805 Y49.028 E4.65352
G1 X175.366 Y49.065 E4.67222
G1 X175.676 Y49.093 E4.68258
G1 X176.178 Y49.15 E4.69938
G1 X176.441 Y49.186 E4.70821
G1 X176.968 Y49.271 E4.72596
G1 X177.3 Y49.333 E4.7372
G1 X177.91 Y49.465 E4.75795
G1 X178.166 Y49.528 E4.76672
G1 X178.623 Y49.651 E4.78246
G1 X179.074 Y49.786 E4.79812
G1 X179.259 Y49.845 E4.80458
G1 X179.594 Y49.958 E4.81634
G1 X179.797 Y50.03 E4.8235
G1 X180.205 Y50.184 E4.83801
G1 X180.45 Y50.282 E4.84678
G1 X180.972 Y50.506 E4.86568
G1 X181.243 Y50.631 E4.8756
G1 X181.702 Y50.856 E4.8926
G1 X181.968 Y50.994 E4.90257
G1 X182.5 Y51.289 E4.9228
G1 X182.774 Y51.451 E4.93339
G1 X183.233 Y51.738 E4.9514
G1 X183.468 Y51.893 E4.96076
G1 X183.865 Y52.167 E4.9768
G1 X184.101 Y52.338 E4.9865
G1 X184.509 Y52.649 E5.00356
G1 X184.727 Y52.823 E5.01284
G1 X185.185 Y53.209 E5.03276
G1 X185.406 Y53.406 E5.04261
G1 X185.784 Y53.759 E5.05981
G1 X185.98 Y53.951 E5.06893
G1 X186.341 Y54.323 E5.08617
G1 X186.55 Y54.548 E5.09639
G1 X186.929 Y54.977 E5.11543
G1 X187.113 Y55.197 E5.12497
G1 X187.464 Y55.639 E5.14374
G1 X187.674 Y55.918 E5.15535
G1 X187.97 Y56.331 E5.17225
G1 X188.112 Y56.539 E5.18063
G1 X188.407 Y56.995 E5.19869
G1 X188.562 Y57.248 E5.20856
G1 X188.812 Y57.677 E5.22508
G1 X188.955 Y57.936 E5.23492
G1 X189.231 Y58.471 E5.25494
G1 X189.357 Y58.732 E5.26458
G1 X189.576 Y59.214 E5.28219
G1 X189.686 Y59.473 E5.29155
G1 X189.863 Y59.918 E5.30748
G1 X189.976 Y60.22 E5.3182
G1 X190.175 Y60.798 E5.33853
G1 X190.258 Y61.064 E5.3478
G1 X190.397 Y61.549 E5.36458
G1 X190.476 Y61.85 E5.37493
G1 X190.596 Y62.357 E5.39226
G1 X190.651 Y62.616 E5.40107
G1 X190.761 Y63.215 E5.42132
G1 X190.81 Y63.531 E5.43196
G1 X190.873 Y64.002 E5.44776
G1 X190.903 Y64.272 E5.4568
G1 X190.951 Y64.848 E5.47602
G1 X190.972 Y65.209 E5.48805
G1 X190.99 Y65.713 E5.50482
G1 X191 Y66.58 E5.53366
G1 X190.999 Y153.542 E8.42603
G1 X190.992 Y154.166 E8.44679
G1 X190.985 Y154.472 E8.45697
G1 X190.972 Y154.805 E8.46805
G1 X190.935 Y155.366 E8.48675
G1 X190.907 Y155.676 E8.4971
G1 X190.85 Y156.178 E8.51391
G1 X190.814 Y156.441 E8.52273
G1 X190.731 Y156.96 E8.54022
G1 X190.67 Y157.288 E8.55131
G1 X190.536 Y157.906 E8.57235
G1 X190.472 Y158.166 E8.58125
G1 X190.345 Y158.638 E8.59751
G1 X190.219 Y159.057 E8.61206
G1 X190.16 Y159.243 E8.61855
G1 X190.042 Y159.594 E8.63087
G1 X189.97 Y159.797 E8.63803
G1 X189.802 Y160.241 E8.65382
G1 X189.703 Y160.486 E8.66261
G1 X189.494 Y160.97 E8.68014
G1 X189.37 Y161.239 E8.69
G1 X189.16 Y161.67 E8.70594
G1 X189.022 Y161.938 E8.71597
G1 X188.72 Y162.485 E8.73675
G1 X188.558 Y162.76 E8.74737
G1 X188.264 Y163.232 E8.76586
G1 X188.115 Y163.458 E8.77486
G1 X187.839 Y163.857 E8.791
G1 X187.668 Y164.093 E8.80069
G1 X187.346 Y164.515 E8.81835
G1 X187.165 Y164.741 E8.82798
G1 X186.809 Y165.164 E8.84637
G1 X186.613 Y165.385 E8.85619
G1 X186.239 Y165.786 E8.87443
G1 X186.042 Y165.987 E8.88379
G1 X185.657 Y166.36 E8.90162
G1 X185.429 Y166.571 E8.91195
G1 X185.008 Y166.942 E8.93062
G1 X184.796 Y167.119 E8.9398
G1 X184.371 Y167.456 E8.95784
G1 X184.09 Y167.668 E8.96955
G1 X183.688 Y167.958 E8.98604
G1 X183.481 Y168.1 E8.99439
G1 X182.967 Y168.432 E9.01474
G1 X182.715 Y168.585 E9.02454
G1 X182.323 Y168.812 E9.03961
G1 X182.064 Y168.955 E9.04945
G1 X181.529 Y169.231 E9.06947
G1 X181.268 Y169.357 E9.07911
G1 X180.786 Y169.576 E9.09672
G1 X180.527 Y169.686 E9.10608
G1 X180.071 Y169.868 E9.12241
G1 X179.768 Y169.981 E9.13316
G1 X179.212 Y170.171 E9.15271
G1 X178.947 Y170.254 E9.16194
G1 X178.451 Y170.397 E9.17911
G1 X178.15 Y170.476 E9.18946
G1 X177.643 Y170.596 E9.20679
G1 X177.384 Y170.651 E9.2156
G1 X176.785 Y170.761 E9.23585
G1 X176.469 Y170.81 E9.24649
G1 X175.989 Y170.874 E9.2626
G1 X175.717 Y170.904 E9.2717
G1 X175.153 Y170.951 E9.29052
G1 X174.794 Y170.972 E9.30248
G1 X174.287 Y170.99 E9.31936
G1 X173.419 Y171 E9.34823
G1 X44.489 Y170.999 E13.63646
G1 X43.85 Y170.991 E13.65771
G1 X43.559 Y170.984 E13.66739
G1 X43.303 Y170.974 E13.67591
G1 X42.497 Y170.912 E13.7028
G1 X42.143 Y170.872 E13.71465
G1 X41.322 Y170.748 E13.74227
G1 X41.096 Y170.705 E13.74992
G1 X40.337 Y170.533 E13.7758
G1 X39.963 Y170.434 E13.78867
G1 X38.948 Y170.112 E13.82409
G1 X38.598 Y169.982 E13.83651
G1 X37.751 Y169.626 E13.86706
G1 X37.553 Y169.533 E13.87434
G1 X37.255 Y169.388 E13.88536
G1 X37.115 Y169.317 E13.89058
G1 X36.474 Y168.964 E13.91492
G1 X36.282 Y168.85 E13.92235
G1 X35.857 Y168.585 E13.93901
G1 X35.682 Y168.47 E13.94597
G1 X35.055 Y168.025 E13.97154
G1 X34.769 Y167.807 E13.9835
G1 X34.135 Y167.286 E14.0108
G1 X33.975 Y167.144 E14.01791
G1 X33.556 Y166.752 E14.037
G1 X33.419 Y166.617 E14.04339
G1 X33.125 Y166.316 E14.05739
G1 X32.984 Y166.166 E14.06424
G1 X32.549 Y165.674 E14.08608
G1 X32.429 Y165.53 E14.09231
G1 X31.721 Y164.582 E14.13167
G1 X31.353 Y164.029 E14.15376
G1 X30.709 Y162.927 E14.19621
G1 X30.572 Y162.658 E14.20625
G1 X30.263 Y161.999 E14.23046
G1 X30.179 Y161.803 E14.23755
G1 X29.954 Y161.233 E14.25794
G1 X29.883 Y161.038 E14.26484
G1 X29.648 Y160.316 E14.29009
G1 X29.543 Y159.951 E14.30272
G1 X29.352 Y159.185 E14.32898
G1 X29.315 Y159.01 E14.33493
G1 X29.217 Y158.485 E14.35269
G1 X29.183 Y158.274 E14.3598
G1 X29.107 Y157.705 E14.3789
G1 X29.088 Y157.529 E14.38478
G1 X29.041 Y156.963 E14.40367
G1 X29.027 Y156.713 E14.412
G1 X29.011 Y156.242 E14.42768
G1 X29 Y155.335 E14.45785
G1 X29.001 Y64.463 E17.48026
G1 X29.009 Y63.838 E17.50105
G1 X29.017 Y63.534 E17.51116
G1 X29.027 Y63.287 E17.51939
G1 X29.088 Y62.497 E17.54574
G1 X29.128 Y62.143 E17.55759
G1 X29.249 Y61.337 E17.5847
G1 X29.293 Y61.104 E17.59258
G1 X29.424 Y60.504 E17.61301
G1 X29.471 Y60.314 E17.61952
G1 X29.788 Y59.261 E17.6561
G1 X29.957 Y58.787 E17.67283
G1 X30.376 Y57.774 E17.70929
G1 X30.599 Y57.303 E17.72663
G1 X31.232 Y56.149 E17.7704
G1 X31.402 Y55.879 E17.78102
G1 X31.813 Y55.273 E17.80537
G1 X31.938 Y55.101 E17.81244
G1 X32.24 Y54.704 E17.82903
G1 X32.351 Y54.565 E17.83495
G1 X32.747 Y54.097 E17.85534
G1 X32.882 Y53.946 E17.86208
G1 X33.275 Y53.529 E17.88113
G1 X33.41 Y53.393 E17.88751
G1 X33.704 Y53.107 E17.90115
G1 X33.858 Y52.963 E17.90816
G1 X34.492 Y52.414 E17.93606
G1 X34.784 Y52.18 E17.9485
G1 X35.442 Y51.692 E17.97575
G0 F6000 X35.668 Y52.022
G1 F1200 X35.843 Y51.902 E17.98281
G1 X36.404 Y51.543 E18.00496
G1 X36.61 Y51.42 E18.01294
G1 X37.533 Y50.929 E18.04771
G1 X38.037 Y50.692 E18.06623
G1 X39.1 Y50.261 E18.10439
G1 X39.443 Y50.143 E18.11645
G1 X40.231 Y49.905 E18.14383
G1 X40.42 Y49.856 E18.15032
G1 X40.894 Y49.745 E18.16651
G1 X41.117 Y49.698 E18.17409
G1 X41.918 Y49.561 E18.20112
G1 X42.267 Y49.515 E18.21283
G1 X43.042 Y49.442 E18.23872
G1 X43.285 Y49.428 E18.24682
G1 X43.759 Y49.411 E18.26259
G1 X44.676 Y49.4 E18.29309
G1 X52.293 Y49.4 E18.54644
G1 X53.498 Y49.416 E18.58652
G1 X55.687 Y49.476 E18.65935
G1 X58.26 Y49.476 E18.74493
G1 X59.581 Y49.447 E18.78888
G1 X61.002 Y49.405 E18.83616
G1 X61.312 Y49.4 E18.84647
G1 X173.538 Y49.401 E22.57913
G1 X174.162 Y49.408 E22.59988
G1 X174.456 Y49.415 E22.60966
G1 X174.789 Y49.428 E22.62075
G1 X175.33 Y49.463 E22.63878
G1 X175.64 Y49.491 E22.64913
G1 X176.124 Y49.546 E22.66533
G1 X176.387 Y49.582 E22.67416
G1 X176.895 Y49.664 E22.69128
G1 X177.227 Y49.726 E22.70251
G1 X177.814 Y49.853 E22.72248
G1 X178.07 Y49.916 E22.73125
G1 X178.511 Y50.035 E22.74645
G1 X178.953 Y50.167 E22.76179
G1 X179.138 Y50.226 E22.76825
G1 X179.46 Y50.335 E22.77955
G1 X179.663 Y50.407 E22.78672
G1 X180.057 Y50.555 E22.80072
G1 X180.302 Y50.653 E22.80949
G1 X180.805 Y50.87 E22.82771
G1 X181.076 Y50.995 E22.83764
G1 X181.517 Y51.211 E22.85397
G1 X181.783 Y51.349 E22.86394
G1 X182.297 Y51.634 E22.88349
G1 X182.571 Y51.796 E22.89407
G1 X183.012 Y52.071 E22.91136
G1 X183.247 Y52.226 E22.92072
G1 X183.63 Y52.491 E22.93621
G1 X183.866 Y52.662 E22.94591
G1 X184.259 Y52.961 E22.96233
G1 X184.477 Y53.135 E22.97161
G1 X184.918 Y53.507 E22.9908
G1 X185.139 Y53.704 E23.00064
G1 X185.504 Y54.045 E23.01726
G1 X185.7 Y54.237 E23.02638
G1 X186.048 Y54.595 E23.04299
G1 X186.257 Y54.82 E23.0532
G1 X186.622 Y55.234 E23.07156
G1 X186.806 Y55.454 E23.0811
G1 X187.144 Y55.879 E23.09916
G1 X187.354 Y56.158 E23.11077
G1 X187.639 Y56.556 E23.12706
G1 X187.781 Y56.764 E23.13543
G1 X188.066 Y57.204 E23.15287
G1 X188.221 Y57.457 E23.16274
G1 X188.462 Y57.871 E23.17867
G1 X188.605 Y58.13 E23.18851
G1 X188.871 Y58.645 E23.20779
G1 X188.997 Y58.906 E23.21743
G1 X189.208 Y59.37 E23.23438
G1 X189.318 Y59.629 E23.24374
G1 X189.489 Y60.058 E23.2591
G1 X189.602 Y60.36 E23.26983
G1 X189.793 Y60.918 E23.28944
G1 X189.876 Y61.184 E23.29871
G1 X190.01 Y61.65 E23.31484
G1 X190.089 Y61.951 E23.32519
G1 X190.205 Y62.44 E23.3419
G1 X190.26 Y62.699 E23.35071
G1 X190.366 Y63.277 E23.37025
G1 X190.415 Y63.593 E23.38089
G1 X190.475 Y64.046 E23.39609
G1 X190.505 Y64.316 E23.40512
G1 X190.552 Y64.871 E23.42365
G1 X190.573 Y65.232 E23.43568
G1 X190.59 Y65.718 E23.45185
G1 X190.6 Y66.58 E23.48052
G1 X190.599 Y153.538 E26.37276
G1 X190.592 Y154.162 E26.39351
G1 X190.585 Y154.456 E26.40329
G1 X190.572 Y154.789 E26.41438
G1 X190.537 Y155.33 E26.43241
G1 X190.509 Y155.64 E26.44276
G1 X190.454 Y156.124 E26.45896
G1 X190.418 Y156.387 E26.46779
G1 X190.337 Y156.887 E26.48464
G1 X190.276 Y157.215 E26.49574
G1 X190.148 Y157.811 E26.51601
G1 X190.084 Y158.071 E26.52492
G1 X189.961 Y158.525 E26.54056
G1 X189.838 Y158.936 E26.55483
G1 X189.779 Y159.122 E26.56132
G1 X189.665 Y159.46 E26.57319
G1 X189.593 Y159.663 E26.58035
G1 X189.431 Y160.091 E26.59557
G1 X189.332 Y160.336 E26.60436
G1 X189.13 Y160.802 E26.62125
G1 X189.006 Y161.071 E26.6311
G1 X188.804 Y161.487 E26.64648
G1 X188.666 Y161.755 E26.65651
G1 X188.375 Y162.282 E26.67653
G1 X188.213 Y162.557 E26.68715
G1 X187.93 Y163.012 E26.70497
G1 X187.781 Y163.238 E26.71397
G1 X187.515 Y163.622 E26.72951
G1 X187.344 Y163.858 E26.7392
G1 X187.034 Y164.265 E26.75622
G1 X186.853 Y164.491 E26.76585
G1 X186.509 Y164.898 E26.78358
G1 X186.313 Y165.119 E26.7934
G1 X185.953 Y165.506 E26.81098
G1 X185.756 Y165.707 E26.82034
G1 X185.386 Y166.067 E26.83751
G1 X185.158 Y166.278 E26.84784
G1 X184.752 Y166.635 E26.86582
G1 X184.54 Y166.812 E26.87501
G1 X184.13 Y167.137 E26.89241
G1 X183.849 Y167.349 E26.90412
G1 X183.461 Y167.628 E26.92001
G1 X183.254 Y167.77 E26.92836
G1 X182.759 Y168.09 E26.94797
G1 X182.507 Y168.243 E26.95777
G1 X182.129 Y168.462 E26.9723
G1 X181.87 Y168.605 E26.98214
G1 X181.355 Y168.871 E27.00142
G1 X181.094 Y168.997 E27.01106
G1 X180.63 Y169.208 E27.02802
G1 X180.371 Y169.318 E27.03737
G1 X179.931 Y169.493 E27.05312
G1 X179.628 Y169.606 E27.06388
G1 X179.092 Y169.789 E27.08272
G1 X178.827 Y169.872 E27.09195
G1 X178.35 Y170.01 E27.10847
G1 X178.049 Y170.089 E27.11882
G1 X177.56 Y170.205 E27.13554
G1 X177.301 Y170.26 E27.14434
G1 X176.723 Y170.366 E27.16389
G1 X176.407 Y170.415 E27.17452
G1 X175.945 Y170.476 E27.19002
G1 X175.673 Y170.506 E27.19912
G1 X175.13 Y170.552 E27.21725
G1 X174.771 Y170.573 E27.22921
G1 X174.282 Y170.59 E27.24548
G1 X173.419 Y170.6 E27.27419
G1 X44.494 Y170.599 E31.56225
G1 X43.855 Y170.591 E31.58351
G1 X43.574 Y170.584 E31.59286
G1 X43.318 Y170.574 E31.60138
G1 X42.542 Y170.515 E31.62726
G1 X42.188 Y170.475 E31.63911
G1 X41.397 Y170.355 E31.66572
G1 X41.171 Y170.312 E31.67337
G1 X40.44 Y170.146 E31.6983
G1 X40.066 Y170.047 E31.71117
G1 X39.087 Y169.737 E31.74533
G1 X38.737 Y169.607 E31.75774
G1 X37.922 Y169.264 E31.78715
G1 X37.724 Y169.171 E31.79443
G1 X37.436 Y169.031 E31.80508
G1 X37.296 Y168.96 E31.8103
G1 X36.678 Y168.62 E31.83376
G1 X36.486 Y168.506 E31.84119
G1 X36.077 Y168.25 E31.85724
G1 X35.902 Y168.135 E31.8642
G1 X35.297 Y167.707 E31.88885
G1 X35.011 Y167.489 E31.90081
G1 X34.401 Y166.987 E31.92709
G1 X34.241 Y166.845 E31.9342
G1 X33.837 Y166.467 E31.9526
G1 X33.7 Y166.332 E31.959
G1 X33.417 Y166.042 E31.97248
G1 X33.276 Y165.892 E31.97933
G1 X32.856 Y165.418 E32.00039
G1 X32.736 Y165.274 E32.00662
G1 X32.054 Y164.36 E32.04455
G1 X31.686 Y163.807 E32.06665
G1 X31.065 Y162.746 E32.10754
G1 X30.928 Y162.477 E32.11758
G1 X30.631 Y161.842 E32.14089
G1 X30.547 Y161.646 E32.14798
G1 X30.33 Y161.097 E32.16762
G1 X30.259 Y160.902 E32.17452
G1 X30.032 Y160.205 E32.1989
G1 X29.927 Y159.84 E32.21153
G1 X29.743 Y159.103 E32.2368
G1 X29.706 Y158.928 E32.24275
G1 X29.612 Y158.421 E32.2599
G1 X29.578 Y158.21 E32.26701
G1 X29.504 Y157.662 E32.2854
G1 X29.485 Y157.486 E32.29129
G1 X29.441 Y156.941 E32.30947
G1 X29.427 Y156.691 E32.3178
G1 X29.411 Y156.237 E32.33291
G1 X29.4 Y155.335 E32.36291
G1 X29.401 Y64.468 E35.38516
G1 X29.409 Y63.843 E35.40595
G1 X29.417 Y63.55 E35.4157
G1 X29.427 Y63.303 E35.42392
G1 X29.485 Y62.542 E35.44931
G1 X29.525 Y62.188 E35.46116
G1 X29.642 Y61.411 E35.48729
G1 X29.686 Y61.178 E35.49518
G1 X29.812 Y60.6 E35.51485
G1 X29.859 Y60.41 E35.52136
G1 X30.165 Y59.395 E35.55662
G1 X30.334 Y58.921 E35.57336
G1 X30.738 Y57.945 E35.60849
G1 X30.961 Y57.474 E35.62583
G1 X31.571 Y56.362 E35.66801
G1 X31.741 Y56.092 E35.67862
G1 X32.136 Y55.508 E35.70207
G1 X32.261 Y55.336 E35.70914
G1 X32.553 Y54.954 E35.72514
G1 X32.664 Y54.815 E35.73105
G1 X33.045 Y54.364 E35.75069
G1 X33.18 Y54.213 E35.75743
G1 X33.559 Y53.81 E35.77583
G1 X33.694 Y53.674 E35.7822
G1 X33.977 Y53.4 E35.7953
G1 X34.131 Y53.256 E35.80231
G1 X34.742 Y52.726 E35.82922
G1 X35.034 Y52.492 E35.84166
G1 X35.668 Y52.022 E35.86791
G0 F6000 X35.895 Y52.352
G1 F1200 X36.07 Y52.232 E35.87497
G1 X36.609 Y51.886 E35.89627
G1 X36.815 Y51.763 E35.90425
G1 X37.704 Y51.291 E35.93773
G1 X38.208 Y51.054 E35.95625
G1 X39.23 Y50.639 E35.99294
G1 X39.573 Y50.521 E36.005
G1 X40.331 Y50.292 E36.03134
G1 X40.52 Y50.243 E36.03783
G1 X40.976 Y50.136 E36.05341
G1 X41.199 Y50.089 E36.06099
G1 X41.97 Y49.957 E36.08701
G1 X42.319 Y49.911 E36.09872
G1 X43.065 Y49.841 E36.12364
G1 X43.308 Y49.827 E36.13173
G1 X43.764 Y49.811 E36.14691
G1 X44.676 Y49.8 E36.17725
G1 X52.293 Y49.8 E36.43059
G1 X53.492 Y49.816 E36.47047
G1 X55.675 Y49.876 E36.54311
G1 X58.268 Y49.876 E36.62935
