;FLAVOR:Marlin
;TIME:8685
;Filament used: 9.38031m
;Layer height: 0.16
;MINX:1.6
;MINY:42.099
;MINZ:0.2
;MAXX:218.4
;MAXY:177.9
;MAXZ:13.08
;Generated with Cura_SteamEngine 4.12.1
M140 S60
M105
M190 S60
M104 S200
M105
M109 S200
M82 ;absolute extrusion mode
; Ender 3 Custom Start G-code
G92 E0 ; Reset Extruder
G28 ; Home all axes
G29 ; Auto bwed level BL touch
G1 Z2.0 F3000 ; Move Z Axis up little to prevent scratching of Heat Bed
G1 X0.1 Y20 Z0.3 F5000.0 ; Move to start position
G1 X0.1 Y200.0 Z0.3 F1500.0 E15 ; Draw the first line
G1 X0.4 Y200.0 Z0.3 F5000.0 ; Move to side a little
G1 X0.4 Y20 Z0.3 F1500.0 E30 ; Draw the second line
G92 E0 ; Reset Extruder
G1 Z2.0 F3000 ; Move Z Axis up little to prevent scratching of Heat Bed
G1 X5 Y20 Z0.3 F5000.0 ; Move over to prevent blob squish
G92 E0
G92 E0
G1 F1500 E-6.5
;LAYER_COUNT:71
;LAYER:0
M107
G0 F9000 X12.384 Y42.693 Z0.2
;TYPE:SKIRT
G1 F1500 E0
G1 F2400 X12.684 Y42.61 E0.01035
G1 X13.275 Y42.464 E0.0306
G1 X13.353 Y42.447 E0.03326
G1 X14.113 Y42.309 E0.05895
G1 X14.636 Y42.233 E0.07652
G1 X15.583 Y42.137 E0.10818
G1 X16.003 Y42.117 E0.12217
G1 X16.57 Y42.102 E0.14103
G1 X16.895 Y42.1 E0.15184
G1 X202.816 Y42.099 E6.3356
G1 X203.705 Y42.11 E6.36517
G1 X204.059 Y42.12 E6.37695
G1 X204.278 Y42.13 E6.38424
G1 X205.433 Y42.245 E6.42285
G1 X205.958 Y42.325 E6.44051
G1 X207.028 Y42.542 E6.47682
G1 X207.411 Y42.64 E6.48997
G1 X208.378 Y42.936 E6.52361
G1 X208.594 Y43.013 E6.53123
G1 X209.269 Y43.279 E6.55537
G1 X209.611 Y43.427 E6.56776
G1 X210.605 Y43.918 E6.60463
G1 X210.922 Y44.095 E6.61671
G1 X211.674 Y44.555 E6.64603
G1 X211.834 Y44.662 E6.65243
G1 X212.189 Y44.91 E6.66683
G1 X212.376 Y45.046 E6.67453
G1 X212.798 Y45.369 E6.6922
G1 X212.9 Y45.451 E6.69655
G1 X213.362 Y45.843 E6.71671
G1 X213.54 Y46.003 E6.72467
G1 X213.964 Y46.406 E6.74412
G1 X214.116 Y46.558 E6.75127
G1 X214.687 Y47.175 E6.77923
G1 X214.898 Y47.421 E6.79001
G1 X215.356 Y47.992 E6.81436
G1 X215.463 Y48.135 E6.8203
G1 X215.728 Y48.504 E6.83541
G1 X215.848 Y48.679 E6.84247
G1 X216.183 Y49.199 E6.86304
G1 X216.263 Y49.331 E6.86817
G1 X216.642 Y50.008 E6.89398
G1 X216.833 Y50.38 E6.90789
G1 X217.381 Y51.633 E6.95337
G1 X217.539 Y52.066 E6.9687
G1 X217.797 Y52.87 E6.99679
G1 X217.897 Y53.227 E7.00912
G1 X218.112 Y54.14 E7.04032
G1 X218.19 Y54.609 E7.05613
G1 X218.266 Y55.131 E7.07367
G1 X218.365 Y56.128 E7.107
G1 X218.381 Y56.47 E7.11839
G1 X218.392 Y56.808 E7.12963
G1 X218.398 Y57.07 E7.13835
G1 X218.4 Y57.395 E7.14916
G1 X218.4 Y162.413 E10.64207
G1 X218.388 Y163.282 E10.67098
G1 X218.372 Y163.744 E10.68635
G1 X218.364 Y163.887 E10.69112
G1 X218.256 Y164.93 E10.72599
G1 X218.162 Y165.547 E10.74675
G1 X217.906 Y166.758 E10.78792
G1 X217.822 Y167.069 E10.79863
G1 X217.464 Y168.165 E10.83698
G1 X217.328 Y168.517 E10.84953
G1 X216.756 Y169.762 E10.8951
G1 X216.456 Y170.32 E10.91617
G1 X215.933 Y171.192 E10.94999
G1 X215.866 Y171.293 E10.95403
G1 X215.57 Y171.717 E10.97122
G1 X215.427 Y171.912 E10.97927
G1 X215.078 Y172.363 E10.99823
G1 X214.998 Y172.461 E11.00244
G1 X214.712 Y172.798 E11.01714
G1 X214.565 Y172.964 E11.02452
G1 X214.002 Y173.554 E11.05164
G1 X213.777 Y173.773 E11.06208
G1 X213.155 Y174.334 E11.08994
G1 X212.949 Y174.506 E11.09887
G1 X212.304 Y175.005 E11.12599
G1 X212.015 Y175.212 E11.13782
G1 X211.105 Y175.798 E11.17382
G1 X210.779 Y175.986 E11.18633
G1 X209.948 Y176.419 E11.2175
G1 X209.518 Y176.61 E11.23315
G1 X209.012 Y176.821 E11.25138
G1 X208.296 Y177.09 E11.27682
G1 X208.059 Y177.17 E11.28514
G1 X207.177 Y177.428 E11.31571
G1 X206.942 Y177.486 E11.32376
G1 X205.865 Y177.695 E11.36025
G1 X205.341 Y177.77 E11.37785
G1 X204.417 Y177.863 E11.40874
G1 X203.997 Y177.883 E11.42273
G1 X203.43 Y177.898 E11.44159
G1 X203.105 Y177.9 E11.4524
G1 X17.087 Y177.9 E17.63938
G1 X16.218 Y177.888 E17.66829
G1 X15.753 Y177.872 E17.68376
G1 X15.201 Y177.833 E17.70217
G1 X14.974 Y177.811 E17.70976
G1 X14.515 Y177.756 E17.72513
G1 X14.3 Y177.726 E17.73235
G1 X13.1 Y177.491 E17.77302
G1 X12.567 Y177.355 E17.79132
G1 X11.385 Y176.981 E17.83255
G1 X11.045 Y176.852 E17.84465
G1 X10.063 Y176.423 E17.88029
G1 X9.726 Y176.256 E17.8928
G1 X8.828 Y175.758 E17.92695
G1 X8.514 Y175.564 E17.93923
G1 X7.771 Y175.062 E17.96905
G1 X7.562 Y174.908 E17.97769
G1 X7.204 Y174.633 E17.9927
G1 X7.108 Y174.556 E17.99679
G1 X6.64 Y174.158 E18.01723
G1 X6.463 Y173.999 E18.02514
G1 X5.952 Y173.51 E18.04867
G1 X5.769 Y173.323 E18.05737
G1 X5.204 Y172.698 E18.08539
G1 X5.027 Y172.487 E18.09455
G1 X4.527 Y171.845 E18.12161
G1 X4.293 Y171.52 E18.13493
G1 X3.788 Y170.752 E18.16551
G1 X3.692 Y170.592 E18.17171
G1 X3.442 Y170.155 E18.18846
G1 X3.346 Y169.977 E18.19518
G1 X2.99 Y169.253 E18.22202
G1 X2.839 Y168.916 E18.2343
G1 X2.539 Y168.177 E18.26083
G1 X2.479 Y168.012 E18.26667
G1 X2.315 Y167.525 E18.28376
G1 X2.253 Y167.326 E18.29069
G1 X2.073 Y166.681 E18.31296
G1 X2.012 Y166.433 E18.32146
G1 X1.805 Y165.365 E18.35764
G1 X1.73 Y164.841 E18.37525
G1 X1.637 Y163.917 E18.40613
G1 X1.63 Y163.796 E18.41017
G1 X1.617 Y163.483 E18.42058
G1 X1.602 Y162.917 E18.43942
G1 X1.6 Y162.595 E18.45013
G1 X1.6 Y57.587 E21.94271
G1 X1.612 Y56.718 E21.97161
G1 X1.628 Y56.256 E21.98699
G1 X1.636 Y56.113 E21.99175
G1 X1.744 Y55.07 E22.02663
G1 X1.838 Y54.453 E22.04739
G1 X2.094 Y53.242 E22.08855
G1 X2.178 Y52.931 E22.09927
G1 X2.529 Y51.854 E22.13694
G1 X2.665 Y51.5 E22.14956
G1 X3.242 Y50.241 E22.19562
G1 X3.518 Y49.727 E22.21502
G1 X4.137 Y48.71 E22.25462
G1 X4.353 Y48.395 E22.26733
G1 X4.829 Y47.753 E22.29391
G1 X4.928 Y47.629 E22.29919
G1 X5.308 Y47.178 E22.3188
G1 X5.454 Y47.014 E22.3261
G1 X6.059 Y46.386 E22.35511
G1 X6.323 Y46.133 E22.36727
G1 X6.933 Y45.591 E22.39441
G1 X7.076 Y45.473 E22.40058
G1 X7.42 Y45.2 E22.41518
G1 X7.591 Y45.07 E22.42233
G1 X8.088 Y44.713 E22.44268
G1 X8.233 Y44.615 E22.4485
G1 X8.83 Y44.239 E22.47197
G1 X9.062 Y44.103 E22.48091
G1 X9.913 Y43.653 E22.51293
G1 X10.202 Y43.516 E22.52357
G1 X10.833 Y43.241 E22.54646
G1 X11.236 Y43.08 E22.56089
G1 X12.384 Y42.693 E22.60119
G0 F9000 X12.491 Y43.079
G1 F2400 X12.791 Y42.996 E22.61154
G1 X13.36 Y42.855 E22.63104
G1 X13.438 Y42.838 E22.63369
G1 X14.171 Y42.705 E22.65847
G1 X14.694 Y42.629 E22.67605
G1 X15.606 Y42.537 E22.70654
G1 X16.015 Y42.517 E22.72016
G1 X16.573 Y42.502 E22.73872
G1 X16.895 Y42.5 E22.74943
G1 X202.816 Y42.499 E28.93319
G1 X203.7 Y42.51 E28.96259
G1 X204.041 Y42.52 E28.97394
G1 X204.26 Y42.53 E28.98123
G1 X205.373 Y42.64 E29.01843
G1 X205.898 Y42.72 E29.03609
G1 X206.929 Y42.93 E29.07109
G1 X207.312 Y43.028 E29.08424
G1 X208.243 Y43.312 E29.11661
G1 X208.459 Y43.389 E29.12424
G1 X209.11 Y43.646 E29.14752
G1 X209.452 Y43.794 E29.15991
G1 X210.41 Y44.267 E29.19545
G1 X210.727 Y44.444 E29.20752
G1 X211.452 Y44.888 E29.2358
G1 X211.612 Y44.995 E29.2422
G1 X211.954 Y45.233 E29.25606
G1 X212.141 Y45.369 E29.26375
G1 X212.548 Y45.681 E29.28081
G1 X212.65 Y45.763 E29.28516
G1 X213.094 Y46.141 E29.30455
G1 X213.272 Y46.301 E29.31251
G1 X213.681 Y46.689 E29.33127
G1 X213.833 Y46.841 E29.33841
G1 X214.384 Y47.435 E29.36536
G1 X214.595 Y47.681 E29.37614
G1 X215.036 Y48.232 E29.39962
G1 X215.143 Y48.375 E29.40556
G1 X215.398 Y48.73 E29.42009
G1 X215.518 Y48.905 E29.42715
G1 X215.841 Y49.406 E29.44698
G1 X215.921 Y49.538 E29.45211
G1 X216.286 Y50.19 E29.47696
G1 X216.477 Y50.562 E29.49087
G1 X217.005 Y51.77 E29.53472
G1 X217.163 Y52.203 E29.55005
G1 X217.412 Y52.978 E29.57712
G1 X217.512 Y53.335 E29.58946
G1 X217.794 Y54.667 E29.63474
G1 X217.87 Y55.189 E29.65228
G1 X217.966 Y56.149 E29.68437
G1 X217.981 Y56.483 E29.69549
G1 X217.998 Y57.073 E29.71513
G1 X218 Y57.395 E29.72584
G1 X218 Y162.407 E33.21855
G1 X217.988 Y163.276 E33.24745
G1 X217.972 Y163.722 E33.2623
G1 X217.964 Y163.865 E33.26706
G1 X217.86 Y164.869 E33.30063
G1 X217.766 Y165.486 E33.32139
G1 X217.52 Y166.654 E33.36109
G1 X217.436 Y166.965 E33.37181
G1 X217.091 Y168.021 E33.40876
G1 X216.955 Y168.373 E33.42131
G1 X216.403 Y169.572 E33.46521
G1 X216.103 Y170.13 E33.48628
G1 X215.6 Y170.971 E33.51887
G1 X215.533 Y171.072 E33.52291
G1 X215.248 Y171.48 E33.53946
G1 X215.105 Y171.675 E33.5475
G1 X214.768 Y172.11 E33.5658
G1 X214.688 Y172.208 E33.57001
G1 X214.413 Y172.532 E33.58415
G1 X214.266 Y172.698 E33.59152
G1 X213.723 Y173.267 E33.61768
G1 X213.498 Y173.486 E33.62812
G1 X212.899 Y174.027 E33.65497
G1 X212.693 Y174.199 E33.66389
G1 X212.071 Y174.68 E33.69005
G1 X211.782 Y174.887 E33.70187
G1 X210.905 Y175.452 E33.73657
G1 X210.579 Y175.64 E33.74908
G1 X209.364 Y176.24 E33.79415
G1 X208.858 Y176.451 E33.81239
G1 X208.168 Y176.711 E33.83691
G1 X207.931 Y176.791 E33.84523
G1 X207.081 Y177.039 E33.87468
G1 X206.846 Y177.097 E33.88273
G1 X205.808 Y177.299 E33.91791
G1 X205.284 Y177.374 E33.93551
G1 X204.394 Y177.463 E33.96526
G1 X203.985 Y177.483 E33.97888
G1 X203.427 Y177.498 E33.99745
G1 X203.105 Y177.5 E34.00816
G1 X17.093 Y177.5 E40.19494
G1 X16.224 Y177.488 E40.22385
G1 X15.88 Y177.478 E40.23529
G1 X15.772 Y177.473 E40.23889
G1 X15.239 Y177.435 E40.25666
G1 X15.012 Y177.413 E40.26425
G1 X14.57 Y177.36 E40.27905
G1 X14.355 Y177.33 E40.28627
G1 X13.199 Y177.103 E40.32546
G1 X12.666 Y176.967 E40.34375
G1 X11.527 Y176.607 E40.38348
G1 X11.187 Y176.478 E40.39558
G1 X10.24 Y176.065 E40.42994
G1 X9.903 Y175.898 E40.44245
G1 X9.039 Y175.418 E40.47532
G1 X8.725 Y175.224 E40.4876
G1 X8.008 Y174.74 E40.51637
G1 X7.799 Y174.586 E40.52501
G1 X7.455 Y174.321 E40.53945
G1 X7.359 Y174.244 E40.54354
G1 X6.907 Y173.861 E40.56325
G1 X6.73 Y173.702 E40.57116
G1 X6.238 Y173.23 E40.59384
G1 X6.055 Y173.043 E40.60254
G1 X5.51 Y172.441 E40.62955
G1 X5.333 Y172.23 E40.63871
G1 X4.852 Y171.612 E40.66476
G1 X4.618 Y171.287 E40.67808
G1 X4.131 Y170.547 E40.70754
G1 X4.035 Y170.387 E40.71375
G1 X3.794 Y169.965 E40.72991
G1 X3.698 Y169.787 E40.73664
G1 X3.355 Y169.089 E40.7625
G1 X3.204 Y168.752 E40.77478
G1 X2.915 Y168.04 E40.80034
G1 X2.855 Y167.875 E40.80618
G1 X2.697 Y167.406 E40.82264
G1 X2.635 Y167.207 E40.82957
G1 X2.462 Y166.586 E40.85102
G1 X2.401 Y166.338 E40.85951
G1 X2.201 Y165.308 E40.89441
G1 X2.126 Y164.784 E40.91201
G1 X2.037 Y163.894 E40.94176
G1 X2.017 Y163.471 E40.95585
G1 X2.002 Y162.914 E40.97438
G1 X2 Y162.595 E40.98499
G1 X2 Y57.593 E44.47737
G1 X2.012 Y56.724 E44.50628
G1 X2.028 Y56.278 E44.52112
G1 X2.036 Y56.135 E44.52588
G1 X2.14 Y55.131 E44.55946
G1 X2.234 Y54.514 E44.58021
G1 X2.48 Y53.346 E44.61991
G1 X2.564 Y53.035 E44.63063
G1 X2.902 Y51.998 E44.66691
G1 X3.038 Y51.644 E44.67952
G1 X3.594 Y50.43 E44.72393
G1 X3.87 Y49.916 E44.74333
G1 X4.467 Y48.936 E44.7815
G1 X4.683 Y48.621 E44.7942
G1 X5.141 Y48.002 E44.81982
G1 X5.24 Y47.878 E44.82509
G1 X5.607 Y47.444 E44.844
G1 X5.753 Y47.28 E44.8513
G1 X6.336 Y46.675 E44.87924
G1 X6.6 Y46.422 E44.89141
G1 X7.187 Y45.899 E44.91756
G1 X7.33 Y45.781 E44.92372
G1 X7.662 Y45.519 E44.93779
G1 X7.833 Y45.389 E44.94493
G1 X8.312 Y45.045 E44.96455
G1 X8.457 Y44.947 E44.97037
G1 X9.032 Y44.584 E44.99299
G1 X9.264 Y44.448 E45.00193
G1 X10.084 Y44.015 E45.03277
G1 X10.373 Y43.878 E45.04341
G1 X10.981 Y43.612 E45.06548
G1 X11.384 Y43.451 E45.07992
G1 X12.491 Y43.079 E45.11876
G0 F9000 X12.597 Y43.464
G1 F2400 X12.897 Y43.381 E45.12911
G1 X13.445 Y43.246 E45.14788
G1 X13.523 Y43.229 E45.15054
G1 X14.228 Y43.101 E45.17437
G1 X14.751 Y43.025 E45.19195
G1 X15.629 Y42.936 E45.2213
G1 X16.027 Y42.917 E45.23455
G1 X16.577 Y42.902 E45.25285
G1 X16.895 Y42.9 E45.26343
G1 X202.816 Y42.899 E51.44719
G1 X203.695 Y42.91 E51.47642
G1 X204.022 Y42.92 E51.48731
G1 X204.241 Y42.93 E51.4946
G1 X205.313 Y43.035 E51.53042
G1 X205.838 Y43.115 E51.54809
G1 X206.829 Y43.317 E51.58172
G1 X207.212 Y43.415 E51.59487
G1 X208.109 Y43.689 E51.62607
G1 X208.325 Y43.766 E51.6337
G1 X208.951 Y44.013 E51.65608
G1 X209.293 Y44.161 E51.66847
G1 X210.215 Y44.616 E51.70267
G1 X210.532 Y44.793 E51.71475
G1 X211.229 Y45.22 E51.74193
G1 X211.389 Y45.327 E51.74833
G1 X211.718 Y45.557 E51.76169
G1 X211.905 Y45.693 E51.76938
G1 X212.297 Y45.992 E51.78577
G1 X212.399 Y46.074 E51.79013
G1 X212.827 Y46.438 E51.80881
G1 X213.005 Y46.598 E51.81677
G1 X213.398 Y46.972 E51.83482
G1 X213.55 Y47.124 E51.84197
G1 X214.08 Y47.695 E51.86788
G1 X214.291 Y47.941 E51.87866
G1 X214.716 Y48.471 E51.90125
G1 X214.823 Y48.614 E51.90719
G1 X215.068 Y48.957 E51.92121
G1 X215.188 Y49.132 E51.92827
G1 X215.499 Y49.613 E51.94732
G1 X215.579 Y49.745 E51.95246
G1 X215.93 Y50.373 E51.97639
G1 X216.121 Y50.745 E51.99029
G1 X216.629 Y51.908 E52.0325
G1 X216.787 Y52.341 E52.04783
G1 X217.027 Y53.086 E52.07387
G1 X217.127 Y53.443 E52.0862
G1 X217.399 Y54.724 E52.12975
G1 X217.475 Y55.246 E52.1473
G1 X217.566 Y56.17 E52.17818
G1 X217.582 Y56.496 E52.18904
G1 X217.593 Y56.834 E52.20028
G1 X217.6 Y57.306 E52.21598
G1 X217.6 Y162.402 E55.71149
G1 X217.588 Y163.271 E55.7404
G1 X217.573 Y163.7 E55.75467
G1 X217.565 Y163.843 E55.75944
G1 X217.465 Y164.809 E55.79174
G1 X217.371 Y165.426 E55.8125
G1 X217.134 Y166.55 E55.8507
G1 X217.05 Y166.861 E55.86142
G1 X216.718 Y167.877 E55.89697
G1 X216.582 Y168.229 E55.90952
G1 X216.051 Y169.383 E55.95177
G1 X215.751 Y169.941 E55.97284
G1 X215.267 Y170.75 E56.0042
G1 X215.2 Y170.851 E56.00823
G1 X214.925 Y171.244 E56.02418
G1 X214.782 Y171.439 E56.03223
G1 X214.459 Y171.857 E56.0498
G1 X214.379 Y171.955 E56.054
G1 X214.113 Y172.267 E56.06764
G1 X213.966 Y172.433 E56.07501
G1 X213.444 Y172.98 E56.10016
G1 X213.219 Y173.199 E56.11061
G1 X212.642 Y173.72 E56.13646
G1 X212.436 Y173.892 E56.14539
G1 X211.838 Y174.354 E56.17052
G1 X211.549 Y174.561 E56.18235
G1 X210.706 Y175.105 E56.21572
G1 X210.38 Y175.293 E56.22823
G1 X209.21 Y175.871 E56.27164
G1 X208.704 Y176.082 E56.28987
G1 X208.04 Y176.332 E56.31347
G1 X207.803 Y176.412 E56.32179
G1 X206.985 Y176.651 E56.35013
G1 X206.75 Y176.709 E56.35818
G1 X205.751 Y176.903 E56.39203
G1 X205.227 Y176.978 E56.40964
G1 X204.371 Y177.064 E56.43825
G1 X203.973 Y177.083 E56.4515
G1 X203.423 Y177.098 E56.4698
G1 X203.105 Y177.1 E56.48038
G1 X17.098 Y177.1 E62.667
G1 X16.229 Y177.088 E62.6959
G1 X15.79 Y177.073 E62.71051
G1 X15.278 Y177.036 E62.72759
G1 X15.051 Y177.014 E62.73517
G1 X14.625 Y176.964 E62.74944
G1 X14.41 Y176.934 E62.75666
G1 X13.298 Y176.715 E62.79435
G1 X12.765 Y176.579 E62.81265
G1 X11.669 Y176.233 E62.85088
G1 X11.329 Y176.104 E62.86297
G1 X10.418 Y175.706 E62.89604
G1 X10.081 Y175.539 E62.90855
G1 X9.249 Y175.077 E62.9402
G1 X8.935 Y174.883 E62.95247
G1 X8.245 Y174.418 E62.98015
G1 X8.036 Y174.264 E62.98878
G1 X7.705 Y174.009 E63.00268
G1 X7.609 Y173.932 E63.00677
G1 X7.175 Y173.563 E63.02572
G1 X6.998 Y173.404 E63.03363
G1 X6.524 Y172.95 E63.05547
G1 X6.341 Y172.763 E63.06417
G1 X5.816 Y172.184 E63.09016
G1 X5.639 Y171.973 E63.09932
G1 X5.176 Y171.378 E63.1244
G1 X4.942 Y171.053 E63.13772
G1 X4.474 Y170.341 E63.16606
G1 X4.378 Y170.181 E63.17226
G1 X4.146 Y169.775 E63.18782
G1 X4.05 Y169.597 E63.19454
G1 X3.72 Y168.926 E63.21941
G1 X3.569 Y168.589 E63.2317
G1 X3.291 Y167.904 E63.25628
G1 X3.231 Y167.739 E63.26212
G1 X3.079 Y167.287 E63.27798
G1 X3.017 Y167.088 E63.28492
G1 X2.85 Y166.49 E63.30557
G1 X2.789 Y166.242 E63.31406
G1 X2.597 Y165.251 E63.34763
G1 X2.522 Y164.727 E63.36524
G1 X2.436 Y163.871 E63.39385
G1 X2.416 Y163.459 E63.40757
G1 X2.402 Y162.91 E63.42584
G1 X2.4 Y162.595 E63.43632
G1 X2.4 Y57.598 E66.92853
G1 X2.412 Y56.729 E66.95744
G1 X2.427 Y56.3 E66.97171
G1 X2.435 Y56.157 E66.97648
G1 X2.535 Y55.191 E67.00878
G1 X2.629 Y54.574 E67.02954
G1 X2.866 Y53.45 E67.06774
G1 X2.95 Y53.139 E67.07846
G1 X3.275 Y52.141 E67.11337
G1 X3.411 Y51.787 E67.12598
G1 X3.947 Y50.62 E67.16869
G1 X4.223 Y50.106 E67.1881
