;FLAVOR:Marlin
;TIME:9406
;Filament used: 10.4788m
;Layer height: 0.16
;MINX:38
;MINY:49
;MINZ:0.2
;MAXX:182
;MAXY:171
;MAXZ:5.96
;Generated with Cura_SteamEngine 4.12.1
M140 S60
M105
M190 S60
M104 S200
M105
M109 S200
M82 ;absolute extrusion mode
; Ender 3 Custom Start G-code
G92 E0 ; Reset Extruder
G28 ; Home all axes
G29 ; Auto bwed level BL touch
G1 Z2.0 F3000 ; Move Z Axis up little to prevent scratching of Heat Bed
G1 X0.1 Y20 Z0.3 F5000.0 ; Move to start position
G1 X0.1 Y200.0 Z0.3 F1500.0 E15 ; Draw the first line
G1 X0.4 Y200.0 Z0.3 F5000.0 ; Move to side a little
G1 X0.4 Y20 Z0.3 F1500.0 E30 ; Draw the second line
G92 E0 ; Reset Extruder
G1 Z2.0 F3000 ; Move Z Axis up little to prevent scratching of Heat Bed
G1 X5 Y20 Z0.3 F5000.0 ; Move over to prevent blob squish
G92 E0
G92 E0
G1 F1500 E-6.5
;LAYER_COUNT:34
;LAYER:0
M107
G0 F9000 X43.69 Y52.778 Z0.2
;TYPE:SKIRT
G1 F1500 E0
G1 F2400 X43.895 Y52.608 E0.00886
G1 X44.317 Y52.275 E0.02674
G1 X44.473 Y52.158 E0.03322
G1 X44.886 Y51.863 E0.0501
G1 X45.13 Y51.697 E0.05992
G1 X45.602 Y51.393 E0.07859
G1 X45.801 Y51.272 E0.08634
G1 X46.275 Y51 E0.10452
G1 X46.478 Y50.89 E0.11219
G1 X47.005 Y50.622 E0.13186
G1 X47.277 Y50.493 E0.14187
G1 X48.312 Y50.066 E0.17911
G1 X48.991 Y49.825 E0.20307
G1 X49.887 Y49.549 E0.23426
G1 X50.082 Y49.498 E0.24096
G1 X50.582 Y49.379 E0.25806
G1 X50.813 Y49.33 E0.26591
G1 X51.417 Y49.22 E0.28633
G1 X51.676 Y49.18 E0.29505
G1 X52.211 Y49.111 E0.31299
G1 X52.45 Y49.086 E0.32098
G1 X52.935 Y49.046 E0.33717
G1 X53.235 Y49.028 E0.34716
G1 X53.764 Y49.009 E0.36477
G1 X54.572 Y49 E0.39164
G1 X165.428 Y49 E4.07873
G1 X166.142 Y49.008 E4.10248
G1 X166.439 Y49.015 E4.11236
G1 X166.746 Y49.027 E4.12258
G1 X167.258 Y49.059 E4.13964
G1 X167.514 Y49.081 E4.14819
G1 X168.099 Y49.148 E4.16777
G1 X168.313 Y49.178 E4.17496
G1 X168.806 Y49.258 E4.19157
G1 X169.079 Y49.309 E4.20081
G1 X169.696 Y49.443 E4.22181
G1 X169.943 Y49.504 E4.23027
G1 X170.437 Y49.638 E4.24729
G1 X170.666 Y49.706 E4.25524
G1 X171.181 Y49.873 E4.27325
G1 X171.403 Y49.951 E4.28107
G1 X171.85 Y50.119 E4.29695
G1 X172.092 Y50.216 E4.30563
G1 X172.631 Y50.449 E4.32516
G1 X172.827 Y50.54 E4.33234
G1 X173.239 Y50.742 E4.34761
G1 X173.458 Y50.855 E4.3558
G1 X173.983 Y51.144 E4.37573
G1 X174.184 Y51.262 E4.38349
G1 X174.662 Y51.559 E4.4022
G1 X174.896 Y51.713 E4.41152
G1 X175.301 Y51.993 E4.4279
G1 X175.475 Y52.119 E4.43504
G1 X175.878 Y52.425 E4.45187
G1 X176.065 Y52.574 E4.45982
G1 X176.51 Y52.949 E4.47918
G1 X176.705 Y53.122 E4.48785
G1 X177.113 Y53.502 E4.50639
G1 X177.282 Y53.668 E4.51427
G1 X177.65 Y54.047 E4.53184
G1 X177.81 Y54.22 E4.53968
G1 X178.166 Y54.625 E4.55762
G1 X178.228 Y54.699 E4.56083
G1 X178.652 Y55.238 E4.58364
G1 X179.086 Y55.827 E4.60797
G1 X179.586 Y56.567 E4.63767
G1 X179.667 Y56.698 E4.6428
G1 X179.952 Y57.187 E4.66162
G1 X180.08 Y57.42 E4.67046
G1 X180.325 Y57.893 E4.68818
G1 X180.425 Y58.098 E4.69577
G1 X180.679 Y58.656 E4.71616
G1 X180.777 Y58.889 E4.72457
G1 X180.946 Y59.317 E4.73987
G1 X181.029 Y59.54 E4.74778
G1 X181.202 Y60.04 E4.76538
G1 X181.28 Y60.285 E4.77393
G1 X181.454 Y60.891 E4.7949
G1 X181.515 Y61.129 E4.80308
G1 X181.623 Y61.591 E4.81886
G1 X181.67 Y61.814 E4.82644
G1 X181.765 Y62.329 E4.84385
G1 X181.807 Y62.589 E4.85261
G1 X181.882 Y63.138 E4.87104
G1 X181.909 Y63.383 E4.87924
G1 X181.957 Y63.967 E4.89873
G1 X181.973 Y64.25 E4.90816
G1 X181.99 Y64.722 E4.92387
G1 X182 Y65.534 E4.95088
G1 X181.999 Y154.563 E7.91199
G1 X181.992 Y155.135 E7.93102
G1 X181.985 Y155.417 E7.9404
G1 X181.973 Y155.733 E7.95092
G1 X181.941 Y156.258 E7.96841
G1 X181.919 Y156.514 E7.97696
G1 X181.849 Y157.121 E7.99728
G1 X181.818 Y157.339 E8.00461
G1 X181.735 Y157.839 E8.02146
G1 X181.684 Y158.108 E8.03057
G1 X181.559 Y158.686 E8.05024
G1 X181.498 Y158.934 E8.05873
G1 X181.373 Y159.398 E8.07472
G1 X181.308 Y159.62 E8.08241
G1 X181.131 Y160.169 E8.10159
G1 X181.05 Y160.4 E8.10974
G1 X180.877 Y160.86 E8.12608
G1 X180.781 Y161.099 E8.13465
G1 X180.551 Y161.631 E8.15393
G1 X180.46 Y161.827 E8.16111
G1 X180.25 Y162.256 E8.177
G1 X180.136 Y162.476 E8.18524
G1 X179.864 Y162.969 E8.20397
G1 X179.747 Y163.169 E8.21168
G1 X179.441 Y163.662 E8.23097
G1 X179.287 Y163.896 E8.24029
G1 X179.007 Y164.301 E8.25667
G1 X178.881 Y164.475 E8.26381
G1 X178.562 Y164.895 E8.28135
G1 X178.414 Y165.08 E8.28923
G1 X178.069 Y165.49 E8.30706
G1 X177.895 Y165.687 E8.3158
G1 X177.52 Y166.09 E8.33411
G1 X177.354 Y166.26 E8.34201
G1 X176.971 Y166.634 E8.35982
G1 X176.802 Y166.791 E8.36749
G1 X176.3 Y167.23 E8.38967
G1 X176.227 Y167.29 E8.39281
G1 X175.77 Y167.645 E8.41206
G1 X175.176 Y168.083 E8.4366
G1 X174.433 Y168.586 E8.46645
G1 X174.302 Y168.667 E8.47157
G1 X173.813 Y168.952 E8.4904
G1 X173.58 Y169.08 E8.49924
G1 X173.088 Y169.335 E8.51767
G1 X172.882 Y169.435 E8.52528
G1 X172.354 Y169.674 E8.54456
G1 X172.117 Y169.774 E8.55312
G1 X171.672 Y169.95 E8.56903
G1 X171.454 Y170.031 E8.57677
G1 X170.948 Y170.206 E8.59458
G1 X170.702 Y170.284 E8.60316
G1 X170.107 Y170.454 E8.62374
G1 X169.865 Y170.516 E8.63205
G1 X169.406 Y170.623 E8.64773
G1 X169.188 Y170.669 E8.65514
G1 X168.665 Y170.766 E8.67283
G1 X168.404 Y170.808 E8.68162
G1 X167.861 Y170.882 E8.69985
G1 X167.616 Y170.909 E8.70805
G1 X167.034 Y170.957 E8.72747
G1 X166.752 Y170.973 E8.73686
G1 X166.27 Y170.99 E8.7529
G1 X165.428 Y171 E8.78091
G1 X54.622 Y170.999 E12.46633
G1 X53.567 Y170.982 E12.50143
G1 X53.115 Y170.965 E12.51647
G1 X52.652 Y170.932 E12.53191
G1 X52.403 Y170.909 E12.54023
G1 X51.872 Y170.847 E12.55801
G1 X51.639 Y170.814 E12.56584
G1 X51.157 Y170.735 E12.58208
G1 X50.906 Y170.688 E12.59057
G1 X50.243 Y170.542 E12.61315
G1 X49.997 Y170.48 E12.62159
G1 X49.592 Y170.37 E12.63555
G1 X49.377 Y170.307 E12.643
G1 X48.843 Y170.136 E12.66165
G1 X48.78 Y170.114 E12.66387
G1 X48.147 Y169.871 E12.68642
G1 X47.478 Y169.59 E12.71056
G1 X46.599 Y169.174 E12.7429
G1 X46.423 Y169.081 E12.74952
G1 X45.972 Y168.829 E12.76671
G1 X45.772 Y168.711 E12.77443
G1 X45.222 Y168.364 E12.79606
G1 X44.747 Y168.03 E12.81537
G1 X44.183 Y167.611 E12.83874
G1 X43.447 Y167.013 E12.87028
G1 X43.28 Y166.865 E12.8777
G1 X42.821 Y166.434 E12.89865
G1 X42.651 Y166.265 E12.90662
G1 X42.292 Y165.891 E12.92386
G1 X42.13 Y165.714 E12.93184
G1 X41.773 Y165.304 E12.94992
G1 X41.604 Y165.1 E12.95873
G1 X41.275 Y164.683 E12.9764
G1 X41.158 Y164.527 E12.98289
G1 X40.862 Y164.113 E12.99981
G1 X40.694 Y163.866 E13.00975
G1 X40.387 Y163.389 E13.02862
G1 X40.268 Y163.193 E13.03624
G1 X40 Y162.725 E13.05418
G1 X39.89 Y162.522 E13.06186
G1 X39.64 Y162.031 E13.08018
G1 X39.527 Y161.795 E13.08889
G1 X39.294 Y161.276 E13.10781
G1 X39.069 Y160.696 E13.1285
G1 X38.828 Y160.019 E13.1524
G1 X38.555 Y159.135 E13.18317
G1 X38.502 Y158.934 E13.19009
G1 X38.37 Y158.378 E13.20909
G1 X38.323 Y158.153 E13.21674
G1 X38.22 Y157.583 E13.236
G1 X38.18 Y157.324 E13.24472
G1 X38.111 Y156.789 E13.26266
G1 X38.086 Y156.55 E13.27066
G1 X38.046 Y156.065 E13.28684
G1 X38.028 Y155.765 E13.29684
G1 X38.009 Y155.236 E13.31444
G1 X38 Y154.429 E13.34129
G1 X38.001 Y65.622 E16.29502
G1 X38.018 Y64.567 E16.33011
G1 X38.035 Y64.115 E16.34516
G1 X38.068 Y63.652 E16.3606
G1 X38.091 Y63.403 E16.36891
G1 X38.153 Y62.872 E16.38669
G1 X38.186 Y62.639 E16.39452
G1 X38.265 Y62.157 E16.41077
G1 X38.312 Y61.906 E16.41926
G1 X38.458 Y61.243 E16.44184
G1 X38.52 Y60.997 E16.45028
G1 X38.634 Y60.579 E16.46469
G1 X38.697 Y60.365 E16.47211
G1 X38.834 Y59.929 E16.48731
G1 X39.131 Y59.141 E16.51532
G1 X39.413 Y58.471 E16.53949
G1 X39.826 Y57.599 E16.57159
G1 X39.919 Y57.423 E16.57821
G1 X40.175 Y56.966 E16.59563
G1 X40.292 Y56.768 E16.60328
G1 X40.584 Y56.3 E16.62162
G1 X40.621 Y56.244 E16.62386
G1 X40.969 Y55.748 E16.64401
G1 X41.388 Y55.184 E16.66738
G1 X41.994 Y54.439 E16.69932
G1 X42.145 Y54.269 E16.70688
G1 X42.568 Y53.819 E16.72742
G1 X42.735 Y53.651 E16.7353
G1 X43.111 Y53.29 E16.75264
G1 X43.287 Y53.129 E16.76057
G1 X43.69 Y52.778 E16.77835
G0 F9000 X43.946 Y53.086
G1 F2400 X44.151 Y52.916 E16.78721
G1 X44.557 Y52.595 E16.80442
G1 X44.713 Y52.478 E16.81091
G1 X45.111 Y52.194 E16.82717
G1 X45.355 Y52.028 E16.83698
G1 X45.81 Y51.735 E16.85498
G1 X46.009 Y51.614 E16.86273
G1 X46.466 Y51.351 E16.88027
G1 X46.669 Y51.241 E16.88795
G1 X47.177 Y50.984 E16.90688
G1 X47.449 Y50.855 E16.91689
G1 X48.445 Y50.443 E16.95274
G1 X49.124 Y50.202 E16.97671
G1 X49.988 Y49.936 E17.00677
G1 X50.183 Y49.885 E17.01348
G1 X50.665 Y49.771 E17.02995
G1 X50.896 Y49.722 E17.03781
G1 X51.478 Y49.615 E17.05749
G1 X51.737 Y49.575 E17.0662
G1 X52.252 Y49.509 E17.08347
G1 X52.491 Y49.484 E17.09147
G1 X52.959 Y49.445 E17.10709
G1 X53.259 Y49.427 E17.11708
G1 X53.769 Y49.409 E17.13405
G1 X54.572 Y49.4 E17.16076
G1 X165.428 Y49.4 E20.84785
G1 X166.137 Y49.408 E20.87143
G1 X166.423 Y49.415 E20.88095
G1 X166.73 Y49.427 E20.89117
G1 X167.224 Y49.458 E20.90763
G1 X167.48 Y49.48 E20.91618
G1 X168.044 Y49.544 E20.93505
G1 X168.258 Y49.574 E20.94224
G1 X168.733 Y49.651 E20.95825
G1 X169.006 Y49.702 E20.96748
G1 X169.6 Y49.831 E20.9877
G1 X169.847 Y49.892 E20.99616
G1 X170.323 Y50.022 E21.01257
G1 X170.552 Y50.09 E21.02052
G1 X171.049 Y50.25 E21.03789
G1 X171.271 Y50.328 E21.04571
G1 X171.701 Y50.49 E21.061
G1 X171.943 Y50.587 E21.06967
G1 X172.463 Y50.812 E21.08851
G1 X172.659 Y50.903 E21.0957
G1 X173.056 Y51.097 E21.1104
G1 X173.275 Y51.21 E21.11859
G1 X173.78 Y51.489 E21.13778
G1 X173.981 Y51.607 E21.14553
G1 X174.442 Y51.893 E21.16358
G1 X174.676 Y52.047 E21.17289
G1 X175.066 Y52.317 E21.18867
G1 X175.24 Y52.443 E21.19582
G1 X175.629 Y52.738 E21.21205
G1 X175.816 Y52.887 E21.22001
G1 X176.245 Y53.248 E21.23866
G1 X176.44 Y53.421 E21.24733
G1 X176.833 Y53.788 E21.26521
G1 X177.002 Y53.954 E21.27309
G1 X177.356 Y54.319 E21.29
G1 X177.516 Y54.492 E21.29784
G1 X177.859 Y54.881 E21.31509
G1 X177.921 Y54.955 E21.3183
G1 X178.33 Y55.475 E21.3403
G1 X178.764 Y56.064 E21.36464
G1 X179.246 Y56.777 E21.39326
G1 X179.327 Y56.908 E21.39838
G1 X179.601 Y57.379 E21.41651
G1 X179.729 Y57.612 E21.42535
G1 X179.966 Y58.069 E21.44247
G1 X180.066 Y58.274 E21.45006
G1 X180.31 Y58.811 E21.46968
G1 X180.408 Y59.044 E21.47808
G1 X180.571 Y59.457 E21.49285
G1 X180.654 Y59.68 E21.50077
G1 X180.82 Y60.161 E21.51769
G1 X180.898 Y60.406 E21.52624
G1 X181.066 Y60.99 E21.54645
G1 X181.127 Y61.228 E21.55462
G1 X181.231 Y61.674 E21.56986
G1 X181.278 Y61.897 E21.57744
G1 X181.37 Y62.393 E21.59421
G1 X181.412 Y62.653 E21.60297
G1 X181.484 Y63.182 E21.62073
G1 X181.511 Y63.427 E21.62893
G1 X181.558 Y63.99 E21.64772
G1 X181.574 Y64.273 E21.65715
G1 X181.59 Y64.727 E21.67226
G1 X181.6 Y65.534 E21.6991
G1 X181.599 Y154.558 E24.66005
G1 X181.592 Y155.13 E24.67908
G1 X181.585 Y155.402 E24.68813
G1 X181.573 Y155.718 E24.69864
G1 X181.542 Y156.224 E24.71551
G1 X181.52 Y156.48 E24.72405
G1 X181.453 Y157.064 E24.7436
G1 X181.422 Y157.282 E24.75093
G1 X181.342 Y157.764 E24.76718
G1 X181.291 Y158.033 E24.77628
G1 X181.17 Y158.591 E24.79527
G1 X181.109 Y158.839 E24.80377
G1 X180.989 Y159.286 E24.81916
G1 X180.924 Y159.508 E24.82686
G1 X180.754 Y160.037 E24.84534
G1 X180.673 Y160.268 E24.85348
G1 X180.506 Y160.711 E24.86922
G1 X180.41 Y160.95 E24.87779
G1 X180.188 Y161.463 E24.89638
G1 X180.097 Y161.659 E24.90357
G1 X179.894 Y162.072 E24.91888
G1 X179.78 Y162.292 E24.92712
G1 X179.518 Y162.767 E24.94516
G1 X179.401 Y162.967 E24.95287
G1 X179.107 Y163.442 E24.97145
G1 X178.953 Y163.676 E24.98076
G1 X178.683 Y164.066 E24.99654
G1 X178.557 Y164.24 E25.00369
G1 X178.249 Y164.645 E25.02061
G1 X178.101 Y164.83 E25.02849
G1 X177.769 Y165.225 E25.04565
G1 X177.595 Y165.422 E25.05439
G1 X177.234 Y165.811 E25.07204
G1 X177.068 Y165.981 E25.07995
G1 X176.699 Y166.341 E25.09709
G1 X176.53 Y166.498 E25.10476
G1 X176.046 Y166.921 E25.12614
G1 X175.973 Y166.981 E25.12929
G1 X175.533 Y167.323 E25.14782
G1 X174.939 Y167.761 E25.17237
G1 X174.223 Y168.246 E25.20113
G1 X174.092 Y168.327 E25.20626
G1 X173.621 Y168.601 E25.22438
G1 X173.388 Y168.729 E25.23322
G1 X172.913 Y168.975 E25.25101
G1 X172.707 Y169.075 E25.25863
G1 X172.199 Y169.305 E25.27718
G1 X171.962 Y169.405 E25.28573
G1 X171.533 Y169.575 E25.30108
G1 X171.315 Y169.656 E25.30881
G1 X170.827 Y169.824 E25.32598
G1 X170.581 Y169.902 E25.33456
G1 X170.008 Y170.066 E25.35439
G1 X169.766 Y170.128 E25.3627
G1 X169.324 Y170.232 E25.3778
G1 X169.106 Y170.278 E25.38521
G1 X168.601 Y170.371 E25.40229
G1 X168.34 Y170.413 E25.41108
G1 X167.817 Y170.484 E25.42863
G1 X167.572 Y170.511 E25.43683
G1 X167.011 Y170.558 E25.45556
G1 X166.729 Y170.574 E25.46495
G1 X166.265 Y170.59 E25.48039
G1 X165.428 Y170.6 E25.50823
G1 X54.628 Y170.599 E29.19346
G1 X53.573 Y170.582 E29.22855
G1 X53.135 Y170.566 E29.24313
G1 X52.689 Y170.534 E29.258
G1 X52.44 Y170.511 E29.26632
G1 X51.929 Y170.451 E29.28343
G1 X51.696 Y170.418 E29.29126
G1 X51.231 Y170.342 E29.30693
G1 X50.98 Y170.295 E29.31542
G1 X50.34 Y170.155 E29.33721
G1 X50.094 Y170.093 E29.34565
G1 X49.704 Y169.986 E29.3591
G1 X49.489 Y169.923 E29.36655
G1 X48.975 Y169.758 E29.38451
G1 X48.912 Y169.736 E29.38673
G1 X48.302 Y169.502 E29.40846
G1 X47.633 Y169.221 E29.43259
G1 X46.786 Y168.82 E29.46376
G1 X46.61 Y168.727 E29.47038
G1 X46.176 Y168.484 E29.48692
G1 X45.976 Y168.366 E29.49465
G1 X45.445 Y168.032 E29.51551
G1 X44.986 Y167.709 E29.53418
G1 X44.422 Y167.29 E29.55755
G1 X43.713 Y166.714 E29.58793
G1 X43.546 Y166.566 E29.59535
G1 X43.103 Y166.15 E29.61557
G1 X42.933 Y165.981 E29.62354
G1 X42.587 Y165.621 E29.64015
G1 X42.425 Y165.444 E29.64813
G1 X42.081 Y165.049 E29.66555
G1 X41.912 Y164.845 E29.67436
G1 X41.595 Y164.443 E29.69139
G1 X41.478 Y164.287 E29.69787
G1 X41.193 Y163.888 E29.71418
G1 X41.025 Y163.641 E29.72412
G1 X40.729 Y163.181 E29.74231
G1 X40.61 Y162.985 E29.74994
G1 X40.351 Y162.534 E29.76723
G1 X40.241 Y162.331 E29.77491
G1 X40 Y161.859 E29.79254
G1 X39.887 Y161.623 E29.80124
G1 X39.663 Y161.12 E29.81956
G1 X39.446 Y160.562 E29.83947
G1 X39.205 Y159.885 E29.86337
G1 X38.941 Y159.033 E29.89304
G1 X38.888 Y158.832 E29.89995
G1 X38.762 Y158.296 E29.91826
G1 X38.715 Y158.071 E29.92591
G1 X38.615 Y157.522 E29.94447
G1 X38.575 Y157.263 E29.95319
G1 X38.509 Y156.748 E29.97046
G1 X38.484 Y156.509 E29.97845
G1 X38.445 Y156.041 E29.99407
G1 X38.427 Y155.741 E30.00406
G1 X38.409 Y155.231 E30.02104
G1 X38.4 Y154.429 E30.04771
G1 X38.401 Y65.628 E33.00125
G1 X38.418 Y64.573 E33.03634
G1 X38.434 Y64.135 E33.05092
G1 X38.466 Y63.689 E33.06579
G1 X38.489 Y63.44 E33.07411
G1 X38.549 Y62.929 E33.09122
G1 X38.582 Y62.696 E33.09905
G1 X38.658 Y62.231 E33.11472
G1 X38.705 Y61.98 E33.12321
G1 X38.845 Y61.34 E33.145
G1 X38.907 Y61.094 E33.15344
G1 X39.017 Y60.691 E33.16733
G1 X39.08 Y60.477 E33.17475
G1 X39.214 Y60.056 E33.18945
G1 X39.5 Y59.296 E33.21646
G1 X39.782 Y58.626 E33.24063
G1 X40.18 Y57.786 E33.27155
G1 X40.273 Y57.61 E33.27817
G1 X40.519 Y57.169 E33.29497
G1 X40.636 Y56.971 E33.30262
G1 X40.918 Y56.521 E33.32028
G1 X40.955 Y56.465 E33.32251
G1 X41.29 Y55.987 E33.34192
G1 X41.709 Y55.423 E33.36529
G1 X42.293 Y54.705 E33.39608
G1 X42.444 Y54.535 E33.40364
G1 X42.851 Y54.101 E33.42343
G1 X43.018 Y53.933 E33.43131
G1 X43.381 Y53.585 E33.44803
G1 X43.557 Y53.424 E33.45597
G1 X43.946 Y53.086 E33.47311
G0 F9000 X44.201 Y53.393
G1 F2400 X44.406 Y53.223 E33.48196
G1 X44.797 Y52.915 E33.49852
G1 X44.953 Y52.798 E33.505
G1 X45.336 Y52.525 E33.52065
G1 X45.58 Y52.359 E33.53046
G1 X46.018 Y52.077 E33.54779
G1 X46.217 Y51.956 E33.55554
G1 X46.656 Y51.703 E33.57239
G1 X46.859 Y51.593 E33.58007
G1 X47.348 Y51.345 E33.5983
G1 X47.62 Y51.216 E33.60832
G1 X48.579 Y50.82 E33.64283
G1 X49.258 Y50.579 E33.66679
